X: 2226
T: Avenging And Bright
R: waltz
M: 3/4
K: Gminor
d2|.g2 .g3/2.a/2.b3/2.a/2|(a2 d') z (d'3/2c'/2)|(c'2 g) z .g2|(f2 d) z d2|
.g2 .g3/2.a/2.b3/2.a/2|a/2 (d'3 (d'3) c')|(a3/2b/2) .g2 .g2|g4:|
a2|.b3/2a/2(bd'c'3/2)b/2|(a2 f) z d2|e3/2d/2(egf3/2)e/2|(d2 B) z B2|
.b3/2a/2(bd'c'3/2)b/2|(a2 f) z .d2|(.e.d.c.B.A.G)|g4 d2|
.g2 .g3/2.a/2.b3/2.a/2|(a2 d') z (d'3/2c'/2)|(c'2 g) z .g2|(f2 d) z d2|
.g2 .g3/2.a/2.b3/2.a/2|a/2 (d'3 (d'3) c')|(a3/2b/2) .g2 .g2|g4||

